X: 13322
T: Flanigan's
R: polka
M: 2/4
K: Cmajor
g^f=f|:e2 G2-|GcBc|d2A2-|AcBc|a2 B2-|Bg^fg|
c'2 e2|g4-|gg^f=f|e2 G2-|GcBc|d2 A2-|
A cBc|a3g|f>fAB|1 c4-|cg^f=f:|2 c2 BA|GFED||
C4-|C2 Bc|ddBd|ga ge|dedB|G2 Bd|
cBA^F|D2 ^FA|edd^c|d2 Bc|ddBd|gage|
dedB|G2 Bd|cBA^F|D^FA^F|1 G2 B2|G2 Bc:|2 G2B2|G||

